material/.icons/material/format-text-rotation-down.svg

<svg xmlns="http://www.w3.org/2000/svg" viewBox="0 0 24 24"><path d="M6 19.73l-3-3h2V4.27h2v12.46h2l-3 3m8-10.35v3.75l5.03-1.88L14 9.38M21 12l-11 4.73v-2.06l2.19-.94V8.77L10 7.83V5.77l11 4.73V12z"/></svg>

<?xml version="1.0" encoding="UTF-8"?><!DOCTYPE svg PUBLIC "-//W3C//DTD SVG 1.1//EN" "http://www.w3.org/Graphics/SVG/1.1/DTD/svg11.dtd"><svg xmlns="http://www.w3.org/2000/svg" xmlns:xlink="http://www.w3.org/1999/xlink" version="1.1" id="mdi-format-text-rotation-down" width="24" height="24" viewBox="0 0 24 24"><path d="M6,19.73L3,16.73H5V4.27H7V16.73H9L6,19.73M14,9.38V13.13L19.03,11.25L14,9.38M21,12L10,16.73V14.67L12.19,13.73V8.77L10,7.83V5.77L21,10.5V12Z" /></svg>
